img/NFTinder_logo_small.svg

<svg width="290" height="49" viewBox="0 0 290 49" fill="none" xmlns="http://www.w3.org/2000/svg">
<path d="M10.1073 0L0 47.4837H41.5241L51.6314 0H10.1073Z" fill="url(#paint0_linear_54:620)"/>
<path fill-rule="evenodd" clip-rule="evenodd" d="M83.9201 47.4837L87.8331 29.1007H87.7866L83.9201 47.4837ZM89.6668 20.4858L92.1958 8.61491L89.6182 20.4858H89.6668Z" fill="white"/>
<path fill-rule="evenodd" clip-rule="evenodd" d="M83.9201 47.4837L87.8331 29.1007H87.7866L83.9201 47.4837ZM89.6668 20.4858L92.1958 8.61491L89.6182 20.4858H89.6668Z" fill="url(#paint1_linear_54:620)"/>
<path d="M84.3271 0L74.6807 45.3186L69.8107 0H51.6312L41.5239 47.4837H51.2242L60.8566 2.03502L65.7406 47.4837H83.9201L87.7866 29.1007H87.8331H107.594L109.426 20.4858H89.6668H89.6182L92.1958 8.61491H127.266L118.99 47.4837H128.69L136.966 8.61491H147.334L149.166 0H114.513H84.3271Z" fill="white"/>
<path d="M84.3271 0L74.6807 45.3186L69.8107 0H51.6312L41.5239 47.4837H51.2242L60.8566 2.03502L65.7406 47.4837H83.9201L87.7866 29.1007H87.8331H107.594L109.426 20.4858H89.6668H89.6182L92.1958 8.61491H127.266L118.99 47.4837H128.69L136.966 8.61491H147.334L149.166 0H114.513H84.3271Z" fill="url(#paint2_linear_54:620)"/>
<path d="M160.298 0H152.381L150.55 8.61491H158.467L160.298 0Z" fill="white"/>
<path d="M160.298 0H152.381L150.55 8.61491H158.467L160.298 0Z" fill="url(#paint3_linear_54:620)"/>
<path d="M142.273 47.4562L149.236 15.0563H157.005L150.157 47.4562H142.273Z" fill="white"/>
<path d="M142.273 47.4562L149.236 15.0563H157.005L150.157 47.4562H142.273Z" fill="url(#paint4_linear_54:620)"/>
<path d="M158.001 47.4562L164.791 15.5167L171.064 15.0563L171.007 17.4734C173.462 15.3632 176.781 14.3082 180.962 14.3082C183.303 14.3082 185.24 14.5767 186.775 15.1139C188.31 15.6126 189.46 16.2648 190.228 17.0705C190.995 17.8762 191.475 18.9696 191.667 20.3508C191.897 21.6936 191.954 22.998 191.839 24.2641C191.724 25.4918 191.475 27.0264 191.091 28.868L187.12 47.4562H179.294L183.034 29.7312C183.303 28.2349 183.495 26.9113 183.61 25.7604C183.725 24.6094 183.303 23.6886 182.344 22.998C181.423 22.2691 179.869 21.9046 177.682 21.9046C175.15 21.9046 173.328 22.5184 172.215 23.7461C171.102 24.9739 170.297 26.7579 169.798 29.0982L165.942 47.4562H158.001Z" fill="white"/>
<path d="M158.001 47.4562L164.791 15.5167L171.064 15.0563L171.007 17.4734C173.462 15.3632 176.781 14.3082 180.962 14.3082C183.303 14.3082 185.24 14.5767 186.775 15.1139C188.31 15.6126 189.46 16.2648 190.228 17.0705C190.995 17.8762 191.475 18.9696 191.667 20.3508C191.897 21.6936 191.954 22.998 191.839 24.2641C191.724 25.4918 191.475 27.0264 191.091 28.868L187.12 47.4562H179.294L183.034 29.7312C183.303 28.2349 183.495 26.9113 183.61 25.7604C183.725 24.6094 183.303 23.6886 182.344 22.998C181.423 22.2691 179.869 21.9046 177.682 21.9046C175.15 21.9046 173.328 22.5184 172.215 23.7461C171.102 24.9739 170.297 26.7579 169.798 29.0982L165.942 47.4562H158.001Z" fill="url(#paint5_linear_54:620)"/>
<path d="M207.654 47.9741C199.636 47.9741 195.627 44.0608 195.627 36.2342C195.627 34.3543 195.914 32.1099 196.49 29.501C197.564 24.4751 199.271 20.6961 201.612 18.1639C203.99 15.5934 207.482 14.3082 212.085 14.3082C217.879 14.3082 221.447 15.5359 222.79 17.9913L226.127 2.79846H234.011L224.574 47.1109L218.473 47.7439L218.588 44.924C216.402 46.9574 212.757 47.9741 207.654 47.9741ZM210.647 41.0683C213.371 41.0683 215.442 40.4352 216.862 39.1692C218.282 37.8647 219.356 35.5244 220.085 32.1482C220.43 30.7671 220.603 29.29 220.603 27.717C220.603 25.6069 220.027 24.0531 218.876 23.0556C217.725 22.0581 215.826 21.5593 213.179 21.5593C210.57 21.5593 208.633 22.2883 207.366 23.7461C206.1 25.204 205.122 27.4868 204.432 30.5944C204.086 32.1291 203.914 33.6061 203.914 35.0257C203.914 36.9823 204.412 38.4786 205.41 39.5145C206.446 40.5503 208.191 41.0683 210.647 41.0683Z" fill="white"/>
<path d="M207.654 47.9741C199.636 47.9741 195.627 44.0608 195.627 36.2342C195.627 34.3543 195.914 32.1099 196.49 29.501C197.564 24.4751 199.271 20.6961 201.612 18.1639C203.99 15.5934 207.482 14.3082 212.085 14.3082C217.879 14.3082 221.447 15.5359 222.79 17.9913L226.127 2.79846H234.011L224.574 47.1109L218.473 47.7439L218.588 44.924C216.402 46.9574 212.757 47.9741 207.654 47.9741ZM210.647 41.0683C213.371 41.0683 215.442 40.4352 216.862 39.1692C218.282 37.8647 219.356 35.5244 220.085 32.1482C220.43 30.7671 220.603 29.29 220.603 27.717C220.603 25.6069 220.027 24.0531 218.876 23.0556C217.725 22.0581 215.826 21.5593 213.179 21.5593C210.57 21.5593 208.633 22.2883 207.366 23.7461C206.1 25.204 205.122 27.4868 204.432 30.5944C204.086 32.1291 203.914 33.6061 203.914 35.0257C203.914 36.9823 204.412 38.4786 205.41 39.5145C206.446 40.5503 208.191 41.0683 210.647 41.0683Z" fill="url(#paint6_linear_54:620)"/>
<path d="M247.611 48.0892C238.058 48.0892 233.282 43.9841 233.282 35.7738C233.282 33.9706 233.512 31.8797 233.972 29.501C234.97 24.5518 236.869 20.792 239.67 18.2215C242.47 15.6126 246.441 14.3082 251.582 14.3082C260.138 14.3082 264.416 17.646 264.416 24.3216C264.416 26.8921 263.955 30.23 263.034 34.3351H240.821V35.0257C240.821 39.3226 243.391 41.4711 248.532 41.4711C252.33 41.4711 255.496 40.6846 258.028 39.1116L261.135 44.7514C257.798 46.9766 253.29 48.0892 247.611 48.0892ZM250.661 21.0989C248.321 21.0989 246.46 21.6936 245.079 22.8829C243.736 24.0723 242.701 25.8371 241.972 28.1774H256.762C256.953 27.2182 257.049 26.3742 257.049 25.6453C257.049 24.1874 256.57 23.0747 255.611 22.3074C254.69 21.5018 253.04 21.0989 250.661 21.0989Z" fill="white"/>
<path d="M247.611 48.0892C238.058 48.0892 233.282 43.9841 233.282 35.7738C233.282 33.9706 233.512 31.8797 233.972 29.501C234.97 24.5518 236.869 20.792 239.67 18.2215C242.47 15.6126 246.441 14.3082 251.582 14.3082C260.138 14.3082 264.416 17.646 264.416 24.3216C264.416 26.8921 263.955 30.23 263.034 34.3351H240.821V35.0257C240.821 39.3226 243.391 41.4711 248.532 41.4711C252.33 41.4711 255.496 40.6846 258.028 39.1116L261.135 44.7514C257.798 46.9766 253.29 48.0892 247.611 48.0892ZM250.661 21.0989C248.321 21.0989 246.46 21.6936 245.079 22.8829C243.736 24.0723 242.701 25.8371 241.972 28.1774H256.762C256.953 27.2182 257.049 26.3742 257.049 25.6453C257.049 24.1874 256.57 23.0747 255.611 22.3074C254.69 21.5018 253.04 21.0989 250.661 21.0989Z" fill="url(#paint7_linear_54:620)"/>
<path d="M266.187 47.4562L272.977 15.5167L279.25 15.0563L279.135 18.2215C280.9 15.8428 284.372 14.6535 289.551 14.6535L287.94 22.3074C284.564 22.3458 282.147 23.0172 280.689 24.3216C279.269 25.6261 278.253 27.717 277.639 30.5944L274.071 47.4562H266.187Z" fill="white"/>
<path d="M266.187 47.4562L272.977 15.5167L279.25 15.0563L279.135 18.2215C280.9 15.8428 284.372 14.6535 289.551 14.6535L287.94 22.3074C284.564 22.3458 282.147 23.0172 280.689 24.3216C279.269 25.6261 278.253 27.717 277.639 30.5944L274.071 47.4562H266.187Z" fill="url(#paint8_linear_54:620)"/>
<defs>
<linearGradient id="paint0_linear_54:620" x1="3.41735" y1="23.7254" x2="67.1755" y2="32.4746" gradientUnits="userSpaceOnUse">
<stop stop-color="#6FDCFF" stop-opacity="0"/>
<stop offset="1" stop-color="#FF248D"/>
</linearGradient>
<linearGradient id="paint1_linear_54:620" x1="289.55" y1="24.0786" x2="46.0288" y2="24.0786" gradientUnits="userSpaceOnUse">
<stop offset="0.165995" stop-color="#6FDCFF"/>
<stop offset="0.794858" stop-color="#FF008A"/>
</linearGradient>
<linearGradient id="paint2_linear_54:620" x1="289.55" y1="24.0786" x2="46.0288" y2="24.0786" gradientUnits="userSpaceOnUse">
<stop offset="0.165995" stop-color="#6FDCFF"/>
<stop offset="0.794858" stop-color="#FF008A"/>
</linearGradient>
<linearGradient id="paint3_linear_54:620" x1="289.55" y1="24.0786" x2="46.0288" y2="24.0786" gradientUnits="userSpaceOnUse">
<stop offset="0.165995" stop-color="#6FDCFF"/>
<stop offset="0.794858" stop-color="#FF008A"/>
</linearGradient>
<linearGradient id="paint4_linear_54:620" x1="289.55" y1="24.0786" x2="46.0288" y2="24.0786" gradientUnits="userSpaceOnUse">
<stop offset="0.165995" stop-color="#6FDCFF"/>
<stop offset="0.794858" stop-color="#FF008A"/>
</linearGradient>
<linearGradient id="paint5_linear_54:620" x1="289.55" y1="24.0786" x2="46.0288" y2="24.0786" gradientUnits="userSpaceOnUse">
<stop offset="0.165995" stop-color="#6FDCFF"/>
<stop offset="0.794858" stop-color="#FF008A"/>
</linearGradient>
<linearGradient id="paint6_linear_54:620" x1="289.55" y1="24.0786" x2="46.0288" y2="24.0786" gradientUnits="userSpaceOnUse">
<stop offset="0.165995" stop-color="#6FDCFF"/>
<stop offset="0.794858" stop-color="#FF008A"/>
</linearGradient>
<linearGradient id="paint7_linear_54:620" x1="289.55" y1="24.0786" x2="46.0288" y2="24.0786" gradientUnits="userSpaceOnUse">
<stop offset="0.165995" stop-color="#6FDCFF"/>
<stop offset="0.794858" stop-color="#FF008A"/>
</linearGradient>
<linearGradient id="paint8_linear_54:620" x1="289.55" y1="24.0786" x2="46.0288" y2="24.0786" gradientUnits="userSpaceOnUse">
<stop offset="0.165995" stop-color="#6FDCFF"/>
<stop offset="0.794858" stop-color="#FF008A"/>
</linearGradient>
</defs>
</svg>

<svg preserveAspectRatio="xMinYMin meet" width="290" height="49" fill="none" xmlns="http://www.w3.org/2000/svg"><path d="M10.107 0L0 47.484h41.524L51.631 0H10.107z" fill="url(#paint0_linear_54:620)"/><path fill-rule="evenodd" clip-rule="evenodd" d="M83.92 47.484L87.833 29.1h-.046L83.92 47.484zm5.747-26.998l2.529-11.871-2.578 11.87h.049z" fill="#fff"/><path fill-rule="evenodd" clip-rule="evenodd" d="M83.92 47.484L87.833 29.1h-.046L83.92 47.484zm5.747-26.998l2.529-11.871-2.578 11.87h.049z" fill="url(#paint1_linear_54:620)"/><path d="M84.327 0l-9.646 45.319L69.81 0H51.63L41.524 47.484h9.7l9.633-45.449 4.884 45.449h18.18L87.786 29.1h19.807l1.832-8.615H89.618l2.578-11.871h35.07l-8.276 38.869h9.7l8.276-38.87h10.368L149.166 0H84.327z" fill="#fff"/><path d="M84.327 0l-9.646 45.319L69.81 0H51.63L41.524 47.484h9.7l9.633-45.449 4.884 45.449h18.18L87.786 29.1h19.807l1.832-8.615H89.618l2.578-11.871h35.07l-8.276 38.869h9.7l8.276-38.87h10.368L149.166 0H84.327z" fill="url(#paint2_linear_54:620)"/><path d="M160.298 0h-7.917l-1.831 8.615h7.917L160.298 0z" fill="#fff"/><path d="M160.298 0h-7.917l-1.831 8.615h7.917L160.298 0z" fill="url(#paint3_linear_54:620)"/><path d="M142.273 47.456l6.963-32.4h7.769l-6.848 32.4h-7.884z" fill="#fff"/><path d="M142.273 47.456l6.963-32.4h7.769l-6.848 32.4h-7.884z" fill="url(#paint4_linear_54:620)"/><path d="M158.001 47.456l6.79-31.94 6.273-.46-.057 2.417c2.455-2.11 5.774-3.165 9.955-3.165 2.341 0 4.278.269 5.813.806 1.535.499 2.685 1.15 3.453 1.956.767.806 1.247 1.9 1.439 3.28.23 1.344.287 2.648.172 3.914-.115 1.228-.364 2.762-.748 4.604l-3.971 18.588h-7.826l3.74-17.725a51.97 51.97 0 00.576-3.97c.115-1.152-.307-2.072-1.266-2.763-.921-.729-2.475-1.093-4.662-1.093-2.532 0-4.354.613-5.467 1.841-1.113 1.228-1.918 3.012-2.417 5.352l-3.856 18.358h-7.941z" fill="#fff"/><path d="M158.001 47.456l6.79-31.94 6.273-.46-.057 2.417c2.455-2.11 5.774-3.165 9.955-3.165 2.341 0 4.278.269 5.813.806 1.535.499 2.685 1.15 3.453 1.956.767.806 1.247 1.9 1.439 3.28.23 1.344.287 2.648.172 3.914-.115 1.228-.364 2.762-.748 4.604l-3.971 18.588h-7.826l3.74-17.725a51.97 51.97 0 00.576-3.97c.115-1.152-.307-2.072-1.266-2.763-.921-.729-2.475-1.093-4.662-1.093-2.532 0-4.354.613-5.467 1.841-1.113 1.228-1.918 3.012-2.417 5.352l-3.856 18.358h-7.941z" fill="url(#paint5_linear_54:620)"/><path d="M207.654 47.974c-8.018 0-12.027-3.913-12.027-11.74 0-1.88.287-4.124.863-6.733 1.074-5.026 2.781-8.805 5.122-11.337 2.378-2.57 5.87-3.856 10.473-3.856 5.794 0 9.362 1.228 10.705 3.683l3.337-15.193h7.884l-9.437 44.313-6.101.633.115-2.82c-2.186 2.033-5.831 3.05-10.934 3.05zm2.993-6.906c2.724 0 4.795-.633 6.215-1.899 1.42-1.304 2.494-3.645 3.223-7.02.345-1.382.518-2.859.518-4.432 0-2.11-.576-3.664-1.727-4.661-1.151-.998-3.05-1.497-5.697-1.497-2.609 0-4.546.73-5.813 2.187-1.266 1.458-2.244 3.74-2.934 6.848a20.136 20.136 0 00-.518 4.432c0 1.956.498 3.453 1.496 4.488 1.036 1.036 2.781 1.554 5.237 1.554z" fill="#fff"/><path d="M207.654 47.974c-8.018 0-12.027-3.913-12.027-11.74 0-1.88.287-4.124.863-6.733 1.074-5.026 2.781-8.805 5.122-11.337 2.378-2.57 5.87-3.856 10.473-3.856 5.794 0 9.362 1.228 10.705 3.683l3.337-15.193h7.884l-9.437 44.313-6.101.633.115-2.82c-2.186 2.033-5.831 3.05-10.934 3.05zm2.993-6.906c2.724 0 4.795-.633 6.215-1.899 1.42-1.304 2.494-3.645 3.223-7.02.345-1.382.518-2.859.518-4.432 0-2.11-.576-3.664-1.727-4.661-1.151-.998-3.05-1.497-5.697-1.497-2.609 0-4.546.73-5.813 2.187-1.266 1.458-2.244 3.74-2.934 6.848a20.136 20.136 0 00-.518 4.432c0 1.956.498 3.453 1.496 4.488 1.036 1.036 2.781 1.554 5.237 1.554z" fill="url(#paint6_linear_54:620)"/><path d="M247.611 48.09c-9.553 0-14.329-4.106-14.329-12.316 0-1.803.23-3.894.69-6.273.998-4.95 2.897-8.709 5.698-11.28 2.8-2.608 6.771-3.913 11.912-3.913 8.556 0 12.834 3.338 12.834 10.014 0 2.57-.461 5.908-1.382 10.013h-22.213v.69c0 4.298 2.57 6.446 7.711 6.446 3.798 0 6.964-.786 9.496-2.36l3.107 5.64c-3.337 2.226-7.845 3.338-13.524 3.338zm3.05-26.991c-2.34 0-4.201.595-5.582 1.784-1.343 1.19-2.378 2.954-3.107 5.294h14.79c.191-.959.287-1.803.287-2.532 0-1.458-.479-2.57-1.438-3.338-.921-.805-2.571-1.208-4.95-1.208z" fill="#fff"/><path d="M247.611 48.09c-9.553 0-14.329-4.106-14.329-12.316 0-1.803.23-3.894.69-6.273.998-4.95 2.897-8.709 5.698-11.28 2.8-2.608 6.771-3.913 11.912-3.913 8.556 0 12.834 3.338 12.834 10.014 0 2.57-.461 5.908-1.382 10.013h-22.213v.69c0 4.298 2.57 6.446 7.711 6.446 3.798 0 6.964-.786 9.496-2.36l3.107 5.64c-3.337 2.226-7.845 3.338-13.524 3.338zm3.05-26.991c-2.34 0-4.201.595-5.582 1.784-1.343 1.19-2.378 2.954-3.107 5.294h14.79c.191-.959.287-1.803.287-2.532 0-1.458-.479-2.57-1.438-3.338-.921-.805-2.571-1.208-4.95-1.208z" fill="url(#paint7_linear_54:620)"/><path d="M266.187 47.456l6.79-31.94 6.273-.46-.115 3.165c1.765-2.378 5.237-3.568 10.416-3.568l-1.611 7.654c-3.376.039-5.793.71-7.251 2.015-1.42 1.304-2.436 3.395-3.05 6.272l-3.568 16.862h-7.884z" fill="#fff"/><path d="M266.187 47.456l6.79-31.94 6.273-.46-.115 3.165c1.765-2.378 5.237-3.568 10.416-3.568l-1.611 7.654c-3.376.039-5.793.71-7.251 2.015-1.42 1.304-2.436 3.395-3.05 6.272l-3.568 16.862h-7.884z" fill="url(#paint8_linear_54:620)"/><defs><linearGradient id="paint0_linear_54:620" x1="3.417" y1="23.725" x2="67.175" y2="32.475" gradientUnits="userSpaceOnUse"><stop stop-color="#6FDCFF" stop-opacity="0"/><stop offset="1" stop-color="#FF248D"/></linearGradient><linearGradient id="paint1_linear_54:620" x1="289.55" y1="24.079" x2="46.029" y2="24.079" gradientUnits="userSpaceOnUse"><stop offset=".166" stop-color="#6FDCFF"/><stop offset=".795" stop-color="#FF008A"/></linearGradient><linearGradient id="paint2_linear_54:620" x1="289.55" y1="24.079" x2="46.029" y2="24.079" gradientUnits="userSpaceOnUse"><stop offset=".166" stop-color="#6FDCFF"/><stop offset=".795" stop-color="#FF008A"/></linearGradient><linearGradient id="paint3_linear_54:620" x1="289.55" y1="24.079" x2="46.029" y2="24.079" gradientUnits="userSpaceOnUse"><stop offset=".166" stop-color="#6FDCFF"/><stop offset=".795" stop-color="#FF008A"/></linearGradient><linearGradient id="paint4_linear_54:620" x1="289.55" y1="24.079" x2="46.029" y2="24.079" gradientUnits="userSpaceOnUse"><stop offset=".166" stop-color="#6FDCFF"/><stop offset=".795" stop-color="#FF008A"/></linearGradient><linearGradient id="paint5_linear_54:620" x1="289.55" y1="24.079" x2="46.029" y2="24.079" gradientUnits="userSpaceOnUse"><stop offset=".166" stop-color="#6FDCFF"/><stop offset=".795" stop-color="#FF008A"/></linearGradient><linearGradient id="paint6_linear_54:620" x1="289.55" y1="24.079" x2="46.029" y2="24.079" gradientUnits="userSpaceOnUse"><stop offset=".166" stop-color="#6FDCFF"/><stop offset=".795" stop-color="#FF008A"/></linearGradient><linearGradient id="paint7_linear_54:620" x1="289.55" y1="24.079" x2="46.029" y2="24.079" gradientUnits="userSpaceOnUse"><stop offset=".166" stop-color="#6FDCFF"/><stop offset=".795" stop-color="#FF008A"/></linearGradient><linearGradient id="paint8_linear_54:620" x1="289.55" y1="24.079" x2="46.029" y2="24.079" gradientUnits="userSpaceOnUse"><stop offset=".166" stop-color="#6FDCFF"/><stop offset=".795" stop-color="#FF008A"/></linearGradient></defs></svg>
